X: 1
T: Reel No. 295
M: 4/4
L: 1/8
R: reel
K: Dmaj
dcBA BF(3FFF|GFEF GABc|dcBA BFFA|(3Bcd ec dgfe|
dcBA BF(3FFF|GFEF GABc|dcBA BFFA|(3Bcd ec dDD2|
d2 (3efg fdec|dBcA BFFA|d2 (3efg fdec|dbag fddc|
d2 (3efg fdec|dBcA BFFE|GABc defg|fdec dDD2|
